!!!COM: Gaspar van Weerbeke
!!!CDT: ~1450-~1517
!!!OPR: Missa Et trop penser
!!!OTL: Agnus
!!!OMV: 5
!!!AGN: Mass
!!!SCT: Gas0202e
!!!SCA: Gas0202e
!!!voices: 4
**kern	**text	**kern	**text	**kern	**text	**kern	**text
*part4	*part4	*part3	*part3	*part2	*part2	*part1	*part1
*staff4	*staff4	*staff3	*staff3	*staff2	*staff2	*staff1	*staff1
*I"Bassus	*	*I"Tenor	*	*I"Altus	*	*I"Superius	*
*I'B	*	*I'T	*	*I'A	*	*I'S	*
*clefF4	*	*clefGv2	*	*clefGv2	*	*clefG2	*
*k[b-]	*	*k[b-]	*	*k[b-]	*	*k[b-]	*
*M3/2	*	*M3/2	*	*M3/2	*	*M3/2	*
*met(O)	*	*met(O)	*	*met(O)	*	*met(O)	*
=1	=1	=1	=1	=1	=1	=1	=1
2%3r	.	2%3r	.	4.G	A-	1g	A-
.	.	.	.	8A	.	.	.
.	.	.	.	4B-y	.	.	.
.	.	.	.	4c	.	.	.
.	.	.	.	4B-y	-gnus	2g	-gnus
.	.	.	.	4c	.	.	.
=2	=2	=2	=2	=2	=2	=2	=2
1.r	.	1.r	.	4G	De-	2.b-y	De-
.	.	.	.	2d	.	.	.
.	.	.	.	4c	.	4a	.
.	.	.	.	4B-y	.	4g	.
.	.	.	.	4G	.	4e	.
=3	=3	=3	=3	=3	=3	=3	=3
1.r	.	1.r	.	4A	.	2f	-i,
.	.	.	.	4D	-i,	.	.
.	.	.	.	4r	.	4.f	qui
.	.	.	.	2d	qui	.	.
.	.	.	.	.	.	8d	.
.	.	.	.	.	.	2e	.
.	.	.	.	4c#i	.	.	.
=4	=4	=4	=4	=4	=4	=4	=4
1.r	.	1.r	.	4.d	tol-	4d	.
.	.	.	.	.	.	2a	tol-
.	.	.	.	8e	.	.	.
.	.	.	.	8fL	.	.	.
.	.	.	.	8gJ	.	.	.
.	.	.	.	4e	.	4g	.
.	.	.	.	4d	.	4f	.
.	.	.	.	[4f	.	[4a	.
=5	=5	=5	=5	=5	=5	=5	=5
1.r	.	1.r	.	8fL]	.	4a]	.
.	.	.	.	8e-j	.	.	.
.	.	.	.	8d	.	4.b-y	.
.	.	.	.	8cJ	.	.	.
.	.	.	.	2B-y	-lis	.	.
.	.	.	.	.	.	8cc	.
.	.	.	.	.	.	2dd	.
.	.	.	.	4r	.	.	.
*	*	*	*	*	*edit	*	*
.	.	.	.	4e-i	pec-	4cc	.
!!LO:LB:g=original
=6	=6	=6	=6	=6	=6	=6	=6
1.r	.	1.r	.	4d	.	4b-y	.
*	*	*	*	*	*	*col	*
.	.	.	.	4.f	-ca-	4.dd	.
.	.	.	.	8e-i	.	8cc	.
*	*	*	*	*	*	*Xcol	*
*	*	*	*	*col	*	*	*
.	.	.	.	4.d	.	2b-y	-lis
.	.	.	.	8B-y	.	.	.
*	*	*	*	*Xcol	*	*	*
.	.	.	.	4c	.	4e-i	pec-
=7	=7	=7	=7	=7	=7	=7	=7
2r	.	1.r	.	2F	-ta,	4d	.
.	.	.	.	.	.	4.f	-ca-
4.BB-y	Qui	.	.	4r	.	.	.
.	.	.	.	.	.	8e-i	.
*	*	*	*	*	*Xedit	*	*
.	.	.	.	2B-y	pec-	4d	.
8C	.	.	.	.	.	.	.
8DL	.	.	.	.	.	2c	.
8E-iJ	.	.	.	.	.	.	.
4F	.	.	.	4A	.	.	.
=8	=8	=8	=8	=8	=8	=8	=8
4.G	tol-	1.r	.	4B-y	.	4B-y	-ta
*	*	*	*	*	*	*	*edit
.	.	.	.	2d	-ca-	4b-y	mun-
8D	.	.	.	.	.	.	.
4F	.	.	.	.	.	4a	.
4G	.	.	.	4B-y	.	2g	.
2D	-lis	.	.	2A	-ta	.	.
.	.	.	.	.	.	4f#i	.
=9	=9	=9	=9	=9	=9	=9	=9
2.GG	pec-	2r	.	4.G	mun-	1.g	-di,
.	.	.	.	8A	.	.	.
.	.	2r	.	8B-yL	.	.	.
.	.	.	.	8cJ	.	.	.
4.BB-y	-ca-	.	.	4.d	.	.	.
*	*	*lig	*	*	*	*	*
*	*	*col	*	*	*	*	*
.	.	[2G	A-	.	.	.	.
8AA	-ta	.	.	8c	.	.	.
[4C	mun-	.	.	[4e-X	.	.	.
!!LO:LB:g=original
=10	=10	=10	=10	=10	=10	=10	=10
8CL]	.	2G]	.	8e-L]	.	2r	.
8BB-yJ	.	.	.	8dJ	.	.	.
4GG	-di,	.	.	4B-y	.	.	.
2r	.	1B-y	.	4G	.	4d	pec-
*	*	*Xcol	*	*	*	*	*
*	*	*	*	*	*	*col	*
.	.	.	.	2d	.	4.f	-ca-
2r	.	.	.	.	.	.	.
.	.	.	.	.	.	8e-j	-ta
*	*	*	*	*	*	*Xcol	*
*	*	*	*	*	*	*	*Xedit
.	.	.	.	4G	-di,	[4g	mun-
*	*	*Xlig	*	*	*	*	*
=11	=11	=11	=11	=11	=11	=11	=11
2r	.	1G	-gnus	4r	.	8gL]	.
.	.	.	.	.	.	8fJ	.
*	*	*	*	*	*edit	*	*
.	.	.	.	4G	pec-	4d	-di,
2GG	mi-	.	.	4.B-y	-ca-	2r	.
.	.	.	.	8A	-ta	.	.
2F	-se-	2A	.	4.c	mun-	2r	.
.	.	.	.	8B-y	.	.	.
=12	=12	=12	=12	=12	=12	=12	=12
*	*	*	*	*	*	*	*edit
*col	*	*	*	*	*	*	*
4.G	-re-	4B-y	De-	4G	-di:	4g	pec-
*	*	*lig	*	*	*	*	*
*	*	*	*	*	*Xedit	*	*
*	*	*	*	*	*	*col	*
.	.	2d	.	2g	mi-	4.b-y	-ca-
8F	.	.	.	.	.	.	.
*Xcol	*	*	*	*	*	*	*
4G	.	.	.	.	.	.	.
.	.	.	.	.	.	8a	-ta
*	*	*	*	*	*	*Xcol	*
4C	.	2.c	.	4e-j	.	4.cc	mun-
4.F	-re	.	.	4c	-se-	.	.
*Xcol	*	*	*	*	*	*	*
.	.	.	.	.	.	8b-yL	.
.	.	.	.	4f	.	8a	.
8E-i	.	.	.	.	.	8gJ	.
*Xcol	*	*	*	*	*	*	*
*	*	*Xlig	*	*	*	*	*
=13	=13	=13	=13	=13	=13	=13	=13
4F	.	4A	.	8cL	-re-	4f	.
.	.	.	.	8dJ	.	.	.
*	*	*	*	*	*	*lig	*
*	*edit	*	*	*	*	*	*
2E-X	no-	2B-y	.	2e-X	.	2g	.
4F	.	4A	.	2.c	-re	2f	.
2C	.	2G	.	.	.	.	.
*	*	*	*	*	*	*Xlig	*
.	.	.	.	.	.	4e	.
!!LO:LB:g=original
=14	=14	=14	=14	=14	=14	=14	=14
*	*	*	*	*	*edit	*	*
2D	-bis,	2F	-i:	2A	no-	2f	-di,
4G	mi-	2r	.	4B-y	.	2r	.
*col	*	*	*	*	*	*	*
4.B-y	-se-	.	.	4G	.	.	.
*	*	*	*	*	*	*	*Xedit
.	.	2r	.	2d	-bis,	4g	mi-
8AL	.	.	.	.	.	.	.
*Xcol	*	*	*	*	*	*	*
8G	.	.	.	.	.	[4b-y	.
8FJ	.	.	.	.	.	.	.
=15	=15	=15	=15	=15	=15	=15	=15
4.E-i	-re-	4G	mi-	4r	.	4b-]	.
.	.	2B-y	.	4G	mi-	4.g	-se-
8D	.	.	.	.	.	.	.
*	*	*	*	*col	*	*	*
2.BB-y	-re	.	.	4.B-y	.	.	.
.	.	.	.	.	.	8aL	.
.	.	2G	-se-	.	.	8b-y	.
.	.	.	.	8A	.	8ccJ	.
*	*	*	*	*Xcol	*	*	*
.	.	.	.	4G	-se-	4dd	.
4C	.	4A	.	4E	.	4cc	.
=16	=16	=16	=16	=16	=16	=16	=16
4D	no-	4B-y	-re-	4F	-re-	4b-y	-re-
4E-i	.	4c	.	4G	.	8aL	.
.	.	.	.	.	.	8gJ	.
2D	-bis,	1d	-re	2A	-re	2f	-re
*	*Xedit	*	*	*	*Xedit	*	*
4G	no-	.	.	4G	no-	4b-y	no-
[4F	.	.	.	4A	.	[4a	.
=17	=17	=17	=17	=17	=17	=17	=17
8FL]	.	2c	no-	4F	.	8aL]	.
8E-jJ	.	.	.	.	.	8g	.
4F	.	.	.	4A	.	8f	.
.	.	.	.	.	.	8eJ	.
4G	.	4B-y	.	4B-y	.	4d	.
4E-j	.	4G	.	4c	.	2g	.
2D	.	2A	.	2d	.	.	.
.	.	.	.	.	.	4f#i	.
=18	=18	=18	=18	=18	=18	=18	=18
1GGl	-bis.	1Gl	-bis.	1dl	-bis.	1gl	-bis.
!!LO:PB:g=original
=19||	=19||	=19||	=19||	=19||	=19||	=19||	=19||
*M2/2	*	*M2/2	*	*M2/2	*	*M2/2	*
*met(C|)	*	*met(C|)	*	*met(C|)	*	*met(C|)	*
1r	.	1r	.	1r	.	1d	A-
=20	=20	=20	=20	=20	=20	=20	=20
1r	.	1r	.	1r	.	2e	-gnus
.	.	.	.	.	.	2f	.
=21	=21	=21	=21	=21	=21	=21	=21
1r	.	1r	.	1G	A-	2.g	De-
.	.	.	.	.	.	4e	.
=22	=22	=22	=22	=22	=22	=22	=22
1D	A-	1r	.	2A	-gnus	1f	-i,
.	.	.	.	2B-y	.	.	.
=23	=23	=23	=23	=23	=23	=23	=23
*	*	*	*	*	*edit	*	*
2E	-gnus	1r	.	2.c	De-	1r	.
2F	.	.	.	.	.	.	.
.	.	.	.	4A	.	.	.
=24	=24	=24	=24	=24	=24	=24	=24
2.G	De-	1r	.	1B-y	-i,	1r	.
4E	.	.	.	.	.	.	.
=25	=25	=25	=25	=25	=25	=25	=25
1F	-i,	1r	.	2r	.	1r	.
.	.	.	.	2A	A-	.	.
!!LO:LB:g=original
=26	=26	=26	=26	=26	=26	=26	=26
2r	.	1r	.	2B-y	-gnus	1r	.
*	*edit	*	*	*	*	*	*
2E	A-	.	.	2c	.	.	.
=27	=27	=27	=27	=27	=27	=27	=27
2F	-gnus	1r	.	4A	.	1r	.
*	*	*	*	*	*Xedit	*	*
*	*	*	*	*col	*	*	*
.	.	.	.	4.d	De-	.	.
2G	.	.	.	.	.	.	.
.	.	.	.	8cL	.	.	.
*	*	*	*	*Xcol	*	*	*
.	.	.	.	8B-y	.	.	.
.	.	.	.	8AJ	.	.	.
=28	=28	=28	=28	=28	=28	=28	=28
4E	.	1r	.	4G	.	2r	.
4.A	De-	.	.	4F	.	.	.
*	*	*	*	*	*	*	*edit
.	.	.	.	2D	-i,	[2f	qui
8GL	.	.	.	.	.	.	.
8F	.	.	.	.	.	.	.
8EJ	.	.	.	.	.	.	.
=29	=29	=29	=29	=29	=29	=29	=29
2D	-i,	1r	.	1r	.	4f]	.
.	.	.	.	.	.	8eL	.
.	.	.	.	.	.	8dJ	.
*	*Xedit	*	*	*	*	*	*
4E	qui	.	.	.	.	2c	tol-
[4F	tol-	.	.	.	.	.	.
=30	=30	=30	=30	=30	=30	=30	=30
4F]	.	1r	.	1r	.	4d	-lis
*	*	*	*	*	*	*	*Xedit
8EL	.	.	.	.	.	4f	pec-
8DJ	.	.	.	.	.	.	.
2C	-lis	.	.	.	.	2e	-ca-
=31	=31	=31	=31	=31	=31	=31	=31
4D	pec-	1r	.	1r	.	2d	-ta
4F	.	.	.	.	.	.	.
2E	-ca-	.	.	.	.	2g	mun-
=32	=32	=32	=32	=32	=32	=32	=32
2D	-ta	1r	.	1r	.	4f	.
.	.	.	.	.	.	2d	.
2G	mun-	.	.	.	.	.	.
.	.	.	.	.	.	8cL	.
.	.	.	.	.	.	8B-yJ	.
!!LO:LB:g=original
=33	=33	=33	=33	=33	=33	=33	=33
4F	.	1r	.	2r	.	2A	-di,
2D	.	.	.	.	.	.	.
.	.	.	.	2d	qui	2r	.
8CL	.	.	.	.	.	.	.
8BB-yJ	.	.	.	.	.	.	.
=34	=34	=34	=34	=34	=34	=34	=34
2AA	-di,	1r	.	4c	.	1r	.
.	.	.	.	2A	tol-	.	.
*	*edit	*	*	*	*	*	*
2D	qui	.	.	.	.	.	.
.	.	.	.	8GL	.	.	.
.	.	.	.	8FJ	.	.	.
=35	=35	=35	=35	=35	=35	=35	=35
2C	tol-	1r	.	2E	.	1r	.
4D	-lis	.	.	2D	-lis	.	.
*col	*	*	*	*	*	*	*
[4F	pec-	.	.	.	.	.	.
=36	=36	=36	=36	=36	=36	=36	=36
8FL]	.	1r	.	4r	.	1r	.
8GJ	.	.	.	.	.	.	.
*Xcol	*	*	*	*	*	*	*
*	*	*	*	*	*edit	*	*
*	*	*	*	*col	*	*	*
4.B-y	-ca-	.	.	4.d	pec-	.	.
8A	.	.	.	8c	.	.	.
*	*	*	*	*Xcol	*	*	*
[4G	.	.	.	[4B-y	-ca-	.	.
=37	=37	=37	=37	=37	=37	=37	=37
4G]	.	1r	.	4B-]	.	1r	.
8F#iL	.	.	.	8AL	.	.	.
8EJ	.	.	.	8GJ	.	.	.
4F#i	.	.	.	2A	.	.	.
4G	.	.	.	.	.	.	.
=38	=38	=38	=38	=38	=38	=38	=38
1GG	-ta	1r	.	1G	-ta,	2r	.
*	*	*	*	*	*	*	*edit
.	.	.	.	.	.	2g	pec-
=39	=39	=39	=39	=39	=39	=39	=39
1r	.	1r	.	2r	.	2a	-ca-
*	*	*	*	*	*Xedit	*	*
.	.	.	.	2d	pec-	2b-y	-ta
!!LO:LB:g=original
=40	=40	=40	=40	=40	=40	=40	=40
1r	.	1r	.	2e	-ca-	2.cc	mun-
.	.	.	.	2f	-ta	.	.
.	.	.	.	.	.	4a	.
=41	=41	=41	=41	=41	=41	=41	=41
1r	.	1r	.	2.g	mun-	2b-y	.
.	.	.	.	.	.	2g	-di,
.	.	.	.	4e	.	.	.
=42	=42	=42	=42	=42	=42	=42	=42
1r	.	1r	.	2.f	.	2r	.
.	.	.	.	.	.	2a	mun-
.	.	.	.	4e	.	.	.
=43	=43	=43	=43	=43	=43	=43	=43
1r	.	1r	.	4d	.	4b-y	.
.	.	.	.	8cL	.	8aL	.
.	.	.	.	8dJ	.	8b-yJ	.
.	.	.	.	8e-jL	.	8ccL	.
.	.	.	.	8d	.	8b-y	.
.	.	.	.	8c	.	8a	.
.	.	.	.	8B-yJ	.	8gJ	.
=44	=44	=44	=44	=44	=44	=44	=44
4D	mun-	1r	.	2A	-di,	2f	-di,
8CL	.	.	.	.	.	.	.
8DJ	.	.	.	.	.	.	.
8E-jL	.	.	.	2r	.	2r	.
8D	.	.	.	.	.	.	.
8C	.	.	.	.	.	.	.
8BB-yJ	.	.	.	.	.	.	.
=45	=45	=45	=45	=45	=45	=45	=45
*	*	*	*	*	*edit	*	*
*	*	*	*	*col	*	*	*
2AA	-di,	1r	.	4.A	pec-	2.f	pec-
.	.	.	.	8B-y	.	.	.
*	*	*	*	*Xcol	*	*	*
2r	.	.	.	4A	.	.	.
.	.	.	.	[4d	-ca-	4e	-ca-
!!LO:LB:g=original
=46	=46	=46	=46	=46	=46	=46	=46
1r	.	1r	.	4d]	.	4f	-ta
.	.	.	.	8cL	.	2g	mun-
.	.	.	.	8B-yJ	.	.	.
.	.	.	.	2A	-ta	.	.
.	.	.	.	.	.	4f#i	.
=47	=47	=47	=47	=47	=47	=47	=47
1r	.	1r	.	4.G	mun-	1g	-di:
.	.	.	.	8A	.	.	.
.	.	.	.	4B-y	.	.	.
.	.	.	.	[4c	.	.	.
=48	=48	=48	=48	=48	=48	=48	=48
4.AA	pec-	1r	.	8cL]	.	2r	.
.	.	.	.	8B-y	.	.	.
.	.	.	.	8A	.	.	.
8BB-y	.	.	.	8GJ	.	.	.
*	*	*	*	*	*	*	*Xedit
4AA	.	.	.	4F	.	2a	mi-
*	*	*	*	*lig	*	*	*
[4D	-ca-	.	.	[4A	.	.	.
=49	=49	=49	=49	=49	=49	=49	=49
4D]	.	1r	.	4A]	.	2a	-se-
8CL	-ta	.	.	2G	.	.	.
8BB-yJ	.	.	.	.	.	.	.
2AA	mun-	.	.	.	.	2a	-re-
*	*	*	*	*Xlig	*	*	*
.	.	.	.	4F#i	.	.	.
=50	=50	=50	=50	=50	=50	=50	=50
2GG	-di:	1r	.	2G	-di:	4b-y	-re
.	.	.	.	.	.	8aL	.
.	.	.	.	.	.	8gJ	.
2D	mi-	.	.	2r	.	4f	.
.	.	.	.	.	.	4d	no-
=51	=51	=51	=51	=51	=51	=51	=51
2E	-se-	1r	.	1r	.	4c	.
.	.	.	.	.	.	4B-y	.
2F	-re-	.	.	.	.	2A	.
!!LO:PB:g=original
=52	=52	=52	=52	=52	=52	=52	=52
*col	*	*	*	*	*	*	*
4.G	-re	1r	.	1r	.	2B-y	.
8F	.	.	.	.	.	.	.
*Xcol	*	*	*	*	*	*	*
*	*	*	*	*	*	*	*edit
8EL	.	.	.	.	.	2G	-bis,
8DJ	.	.	.	.	.	.	.
4C	.	.	.	.	.	.	.
=53	=53	=53	=53	=53	=53	=53	=53
4.BB-y	no-	1r	.	2G	mi-	1r	.
8AA	.	.	.	.	.	.	.
*	*	*	*	*lig	*	*	*
2GG	-bis,	.	.	[2B-y	.	.	.
=54	=54	=54	=54	=54	=54	=54	=54
4r	.	1r	.	2B-]	.	1r	.
*	*Xedit	*	*	*	*	*	*
4.G	mi-	.	.	.	.	.	.
.	.	.	.	[2G	.	.	.
8A	.	.	.	.	.	.	.
[4B-y	.	.	.	.	.	.	.
=55	=55	=55	=55	=55	=55	=55	=55
4B-]	.	1r	.	2G]	.	1r	.
8AL	.	.	.	.	.	.	.
8GJ	.	.	.	.	.	.	.
*	*	*	*	*Xlig	*	*	*
*	*	*	*	*lig	*	*	*
2F	-se-	.	.	2A	-se-	.	.
=56	=56	=56	=56	=56	=56	=56	=56
2.G	-re-	1r	.	2B-y	.	1r	.
.	.	.	.	[2d	.	.	.
8FL	.	.	.	.	.	.	.
8E-jJ	.	.	.	.	.	.	.
=57	=57	=57	=57	=57	=57	=57	=57
4D	.	1r	.	2d]	.	1r	.
4BB-y	.	.	.	.	.	.	.
*	*	*	*	*Xlig	*	*	*
[2F	-re,	.	.	[2c	-re-	.	.
!!LO:LB:g=original
=58	=58	=58	=58	=58	=58	=58	=58
2F]	.	1r	.	4c]	.	1r	.
.	.	.	.	4A	.	.	.
*	*edit	*	*	*	*	*	*
2D	mi-	.	.	2B-y	.	.	.
=59	=59	=59	=59	=59	=59	=59	=59
2C	-se-	1r	.	2A	.	1r	.
2BB-y	.	.	.	[2G	-re	.	.
=60	=60	=60	=60	=60	=60	=60	=60
2C	-re-	1r	.	4G]	.	1r	.
.	.	.	.	4F	.	.	.
2AA	-re	.	.	[2F	no-	.	.
=61	=61	=61	=61	=61	=61	=61	=61
1GG	no-	1r	.	2F]	.	1r	.
.	.	.	.	2E	.	.	.
=62	=62	=62	=62	=62	=62	=62	=62
1FF	-bis,	1r	.	1F	-bis,	1r	.
=63	=63	=63	=63	=63	=63	=63	=63
*	*	*	*	*	*Xedit	*	*
2r	.	1r	.	4.G	mi-	1r	.
.	.	.	.	8A	.	.	.
*	*	*	*	*col	*	*	*
2GG	mi-	.	.	4.B-y	.	.	.
.	.	.	.	8A	.	.	.
*	*	*	*	*Xcol	*	*	*
!!LO:LB:g=original
=64	=64	=64	=64	=64	=64	=64	=64
1BB-y	.	1r	.	8GL	.	1r	.
.	.	.	.	8FJ	.	.	.
.	.	.	.	4.G	-se-	.	.
.	.	.	.	8F	.	.	.
.	.	.	.	4D	.	.	.
=65	=65	=65	=65	=65	=65	=65	=65
1GG	-se-	1r	.	4.G	-re-	1r	.
.	.	.	.	8A	.	.	.
.	.	.	.	8B-yL	.	.	.
.	.	.	.	8cJ	.	.	.
.	.	.	.	[4d	.	.	.
=66	=66	=66	=66	=66	=66	=66	=66
2AA	.	1r	.	4d]	.	1r	.
.	.	.	.	4c	.	.	.
2BB-y	.	.	.	4B-y	-re	.	.
.	.	.	.	8AL	.	.	.
.	.	.	.	8GJ	.	.	.
=67	=67	=67	=67	=67	=67	=67	=67
*	*	*	*	*	*edit	*	*
1D	-re-	1r	.	4.F	no-	1r	.
.	.	.	.	8G	.	.	.
.	.	.	.	8AL	.	.	.
.	.	.	.	8B-yJ	.	.	.
.	.	.	.	[4A	.	.	.
=68	=68	=68	=68	=68	=68	=68	=68
1C	-re	1r	.	4A]	.	1r	.
.	.	.	.	8GL	.	.	.
.	.	.	.	8FJ	.	.	.
.	.	.	.	2E	.	.	.
=69	=69	=69	=69	=69	=69	=69	=69
*lig	*	*	*	*	*	*	*
2BB-y	no-	1r	.	2D	-bis,	2.d	mi-
2GG	.	.	.	4r	.	.	.
.	.	.	.	[4G	no-	8cL	.
.	.	.	.	.	.	8B-yJ	.
!!LO:LB:g=original
=70	=70	=70	=70	=70	=70	=70	=70
1AA	.	1r	.	4G]	.	2c	-se-
.	.	.	.	8F#iL	.	.	.
.	.	.	.	8EJ	.	.	.
.	.	.	.	2F#i	.	2c	-re-
*Xlig	*	*	*	*	*	*	*
=71	=71	=71	=71	=71	=71	=71	=71
1GG	-bis,	1r	.	2G	-bis,	4B-y	-re
.	.	.	.	.	.	4.d	no-
.	.	.	.	2d	mi-	.	.
.	.	.	.	.	.	8c	.
.	.	.	.	.	.	[4B-y	.
=72	=72	=72	=72	=72	=72	=72	=72
1r	.	1r	.	2c	-se-	4B-]	.
.	.	.	.	.	.	8AL	.
.	.	.	.	.	.	8GJ	.
.	.	.	.	2c	-re-	2A	-bis,
=73	=73	=73	=73	=73	=73	=73	=73
2r	.	1r	.	4B-y	-re	1r	.
.	.	.	.	4.d	no-	.	.
2D	mi-	.	.	.	.	.	.
.	.	.	.	8c	.	.	.
.	.	.	.	[4B-y	.	.	.
=74	=74	=74	=74	=74	=74	=74	=74
1C	-se-	1r	.	4B-]	.	2r	.
.	.	.	.	8AL	.	.	.
.	.	.	.	8GJ	.	.	.
.	.	.	.	2A	-bis,	2c	mi-
=75	=75	=75	=75	=75	=75	=75	=75
4BB-y	-re-	1r	.	1r	.	4d	.
*col	*	*	*	*	*	*	*
4.D	-re	.	.	.	.	2f	-se-
8C	.	.	.	.	.	.	.
*Xcol	*	*	*	*	*	*	*
[4BB-y	no-	.	.	.	.	8e-iL	.
.	.	.	.	.	.	8dJ	.
!!LO:LB:g=original
=76	=76	=76	=76	=76	=76	=76	=76
4BB-]	.	1r	.	4r	.	8e-iL	-re-
.	.	.	.	.	.	8d	.
8AAL	.	.	.	2G	mi-	8c	.
8GGJ	.	.	.	.	.	8B-yJ	.
2AA	.	.	.	.	.	2c	-re
.	.	.	.	4F#i	-se-	.	.
=77	=77	=77	=77	=77	=77	=77	=77
4GG	-bis,	1r	.	2G	-re-	2B-y	no-
2G	no-	.	.	.	.	.	.
.	.	.	.	2D	-re,	2A	.
4F#i	.	.	.	.	.	.	.
=78	=78	=78	=78	=78	=78	=78	=78
2G	-bis,	1r	.	2d	mi-	4G	-bis,
.	.	.	.	.	.	4d	mi-
[2C	mi-	.	.	4e-j	-se-	4c	-se-
.	.	.	.	[4g	-re-	[4e-i	-re-
=79	=79	=79	=79	=79	=79	=79	=79
2C]	.	1r	.	8gL]	.	8e-L]	.
.	.	.	.	8f	.	8d	.
.	.	.	.	8e-j	.	8c	.
.	.	.	.	8dJ	.	8B-yJ	.
4AA	-se-	.	.	4e-j	.	4c	.
[4BB-y	-re-	.	.	[4d	-re	4B-y	.
=80	=80	=80	=80	=80	=80	=80	=80
4BB-]	.	1r	.	4d]	.	4G	-re
8AAL	-re	.	.	8cL	.	2g	no-
8GGJ	.	.	.	8B-yJ	.	.	.
*	*Xedit	*	*	*	*Xedit	*	*
2D	no-	.	.	2A	no-	.	.
.	.	.	.	.	.	4f#i	.
=81	=81	=81	=81	=81	=81	=81	=81
*	*	*	*	*	*	*	*Xedit
1GGl	-bis.	1r	.	1Gl	-bis.	1gl	-bis.
!!LO:PB:g=original
=82||	=82||	=82||	=82||	=82||	=82||	=82||	=82||
*M3/2	*	*M3/2	*	*M3/2	*	*M3/2	*
*met(O|)	*	*met(O|)	*	*met(O|)	*	*met(O|)	*
1.r	.	1.r	.	1.G	A-	1g	A-
.	.	.	.	.	.	2g	-gnus
=83	=83	=83	=83	=83	=83	=83	=83
*	*	*	*	*	*	*	*edit
1.G	A-	1.r	.	2.B-y	-gnus	2.d	De-
.	.	.	.	4G	.	4.B-y	.
.	.	.	.	2B-y	.	.	.
.	.	.	.	.	.	8cL	.
.	.	.	.	.	.	8d	.
.	.	.	.	.	.	8eJ	.
=84	=84	=84	=84	=84	=84	=84	=84
2.D	-gnus	1d	A-	2.A	De-	1f	-i,
4.BB-y	De-	.	.	2B-y	.	.	.
*	*	*	*	*	*	*	*Xedit
.	.	2d	-gnus	.	.	4.f	De-
8CL	.	.	.	.	.	.	.
8D	.	.	.	8AL	.	.	.
8EJ	.	.	.	8GJ	.	8g	.
=85	=85	=85	=85	=85	=85	=85	=85
2.F	.	2.A	De-	2F	-i,	2a	-i,
.	.	.	.	2r	.	4r	.
*	*	*	*	*	*	*	*edit
4G	.	2B-y	.	.	.	2g	A-
*	*	*	*	*	*edit	*	*
2E-j	.	.	.	2G	A-	.	.
.	.	4c	.	.	.	8fL	.
.	.	.	.	.	.	8eJ	.
=86	=86	=86	=86	=86	=86	=86	=86
2.D	-i,	1d	.	1A	-gnus	2.f	-gnus
8CL	.	.	.	.	.	4g	.
8BB-yJ	.	.	.	.	.	.	.
2AA	.	2c	.	2A	De-	2a	De-
=87	=87	=87	=87	=87	=87	=87	=87
*	*	*lig	*	*lig	*	*	*
4GG	.	2B-y	-i,	2B-y	.	2d	-i,
4G	qui	.	.	.	.	.	.
4A	.	1A	.	2.c	.	2r	.
4F#i	.	.	.	.	.	.	.
4.F#i	tol-	.	.	.	.	2r	.
*	*	*	*	*Xlig	*	*	*
.	.	.	.	4A	.	.	.
16ELL	.	.	.	.	.	.	.
16F#iJJ	.	.	.	.	.	.	.
!!LO:LB:g=original
=88	=88	=88	=88	=88	=88	=88	=88
*	*	*	*	*	*	*	*Xedit
1G	-lis	1.G	.	2.B-y	-i,	1dd	qui
*	*	*	*	*	*Xedit	*	*
.	.	.	.	4G	qui	.	.
2r	.	.	.	4.B-y	tol-	2dd	tol-
.	.	.	.	8c	.	.	.
*	*	*Xlig	*	*	*	*	*
=89	=89	=89	=89	=89	=89	=89	=89
1.r	.	1.r	.	4d	.	2.a	-lis
.	.	.	.	2f	.	.	.
.	.	.	.	4g	.	4b-y	.
.	.	.	.	2e	-lis	2cc	.
=90	=90	=90	=90	=90	=90	=90	=90
*	*edit	*	*	*	*	*	*edit
1D	pec-	1.r	.	4d	pec-	1dd	pec-
.	.	.	.	4.f	-ca-	.	.
.	.	.	.	8g	.	.	.
.	.	.	.	4.a	-ta	.	.
2F	.	.	.	.	.	2cc	-ca-
.	.	.	.	8gL	.	.	.
.	.	.	.	8f	.	.	.
.	.	.	.	8eJ	.	.	.
=91	=91	=91	=91	=91	=91	=91	=91
*	*	*	*	*	*	*lig	*
2G	-ca-	1d	qui	4d	.	2b-y	-ta
.	.	.	.	2g	mun-	.	.
1D	-ta,	.	.	.	.	1a	mun-
.	.	.	.	8f#iL	.	.	.
.	.	.	.	8eJ	.	.	.
.	.	2A	tol-	2f#i	.	.	.
=92	=92	=92	=92	=92	=92	=92	=92
4r	.	1B-y	-lis	2g	-di,	1.g	-di,
*	*Xedit	*	*	*	*	*	*
4.G	pec-	.	.	.	.	.	.
.	.	.	.	2r	.	.	.
8FL	.	.	.	.	.	.	.
8E-i	.	.	.	.	.	.	.
8DJ	.	.	.	.	.	.	.
*	*	*	*	*	*edit	*	*
2E-i	.	2c	pec-	2G	qui	.	.
*	*	*	*	*	*	*Xlig	*
!!LO:LB:g=original
=93	=93	=93	=93	=93	=93	=93	=93
4D	-ca-	1d	-ca-	4A	.	2r	.
*	*	*	*	*col	*	*	*
4.G	-ta	.	.	4.B-y	tol-	.	.
.	.	.	.	.	.	2b-y	qui
8F	.	.	.	8A	.	.	.
*	*	*	*	*Xcol	*	*	*
4G	.	.	.	4G	.	.	.
4A	mun-	2c	-ta	2F	-lis	2a	tol-
4F	.	.	.	.	.	.	.
=94	=94	=94	=94	=94	=94	=94	=94
1G	-di,	4B-y	mun-	4r	.	4g	-lis
*	*	*	*	*	*	*	*Xedit
.	.	2d	.	4G	pec-	2b-y	pec-
.	.	.	.	4.B-y	-ca-	.	.
.	.	4B-y	.	.	.	2g	-ca-
.	.	.	.	8c	.	.	.
*	*edit	*	*	*	*	*	*
2D	pec-	2A	.	2d	.	.	.
.	.	.	.	.	.	4f#i	.
=95	=95	=95	=95	=95	=95	=95	=95
4G	-ca-	1G	-di,	4B-y	-ta	2g	-ta
2B-y	.	.	.	2G	mun-	.	.
.	.	.	.	.	.	2d	mun-
2G	-ta	.	.	4B-y	.	.	.
.	.	2r	.	2A	.	2c	.
4F#i	.	.	.	.	.	.	.
=96	=96	=96	=96	=96	=96	=96	=96
4G	.	1.r	.	4G	.	4B-y	.
2D	mun-	.	.	4.F	.	2A	.
.	.	.	.	8D	.	.	.
4BB-y	.	.	.	2G	.	4G	.
2AA	.	.	.	.	.	2c	.
.	.	.	.	4F#i	.	.	.
=97	=97	=97	=97	=97	=97	=97	=97
*	*	*lig	*	*	*	*	*
*	*	*	*edit	*	*	*	*
2GG	-di,	2G	qui	1G	-di,	4B-y	.
*	*	*	*	*	*	*col	*
.	.	.	.	.	.	4.d	.
2r	.	1B-y	.	.	.	.	.
.	.	.	.	.	.	8cL	.
*	*	*	*	*	*	*Xcol	*
.	.	.	.	.	.	8B-y	.
.	.	.	.	.	.	8AJ	.
4.GG	qui	.	.	2r	.	2G	-di,
8AA	.	.	.	.	.	.	.
*	*	*Xlig	*	*	*	*	*
!!LO:LB:g=original
=98	=98	=98	=98	=98	=98	=98	=98
*	*	*	*	*lig	*	*	*
4BB-y	.	1G	tol-	2G	qui	2r	.
4.C	tol-	.	.	.	.	.	.
.	.	.	.	2A	.	2r	.
8BB-yL	.	.	.	.	.	.	.
8AA	.	.	.	.	.	.	.
8GGJ	.	.	.	.	.	.	.
*	*	*	*	*Xlig	*	*	*
*	*	*	*	*	*	*	*edit
2AA	.	2F#i	.	2c	tol-	2a	qui
=99	=99	=99	=99	=99	=99	=99	=99
*lig	*	*lig	*	*	*	*	*
1.GG	-lis	1.G	-lis	4B-y	-lis	2.b-y	tol-
.	.	.	.	4.d	pec-	.	.
.	.	.	.	8cL	.	.	.
.	.	.	.	8B-y	.	4g	.
.	.	.	.	8AJ	.	.	.
.	.	.	.	2G	-ca-	2b-y	-lis
=100	=100	=100	=100	=100	=100	=100	=100
1F	pec-	1.A	.	4F	-ta	4a	pec-
.	.	.	.	2f	mun-	4.cc	-ca-
.	.	.	.	.	.	8b-yL	.
.	.	.	.	8e-iL	.	8a	.
.	.	.	.	8dJ	.	8gJ	.
*Xlig	*	*	*	*	*	*	*
2F	-ca-	.	.	2c	.	2a	-ta
=101	=101	=101	=101	=101	=101	=101	=101
2G	-ta	[1.B-y	.	2B-y	-di,	4.d	mun-
.	.	.	.	.	.	8e-i	.
4D	mun-	.	.	4r	.	4f	.
*	*	*	*	*col	*	*	*
2E-i	.	.	.	4.B-y	mun-	2g	.
.	.	.	.	8cL	.	.	.
*	*	*	*	*Xcol	*	*	*
8DL	.	.	.	8d	.	8fL	.
8CJ	.	.	.	8e-iJ	.	8e-iJ	.
=102	=102	=102	=102	=102	=102	=102	=102
1BB-y	-di,	1B-]	.	1.f	-di:	2.d	-di,
.	.	.	.	.	.	4B-y	.
*	*	*Xlig	*	*	*	*	*
2BB-y	pec-	2d	pec-	.	.	2b-y	pec-
!!LO:LB:g=original
=103	=103	=103	=103	=103	=103	=103	=103
2F	-ca-	1c	-ca-	1.r	.	2a	-ca-
1E-i	-ta	.	.	.	.	4g	-ta
*	*	*	*	*	*	*col	*
.	.	.	.	.	.	4.g	mun-
.	.	2B-y	-ta	.	.	.	.
.	.	.	.	.	.	8fL	.
*	*	*	*	*	*	*Xcol	*
.	.	.	.	.	.	8e-i	.
.	.	.	.	.	.	8dJ	.
=104	=104	=104	=104	=104	=104	=104	=104
*	*	*lig	*	*	*	*	*
*	*	*	*	*	*Xedit	*	*
2F	mun-	2A	mun-	1c	do-	4c	.
.	.	.	.	.	.	2f	.
1C	.	1G	.	.	.	.	.
.	.	.	.	.	.	4e	.
.	.	.	.	2c	-na	4.e	.
.	.	.	.	.	.	8d	.
=105	=105	=105	=105	=105	=105	=105	=105
*	*	*	*	*lig	*	*	*
*	*	*	*	*col	*	*	*
1D	-di:	1.F	-di:	1A	no-	1f	-di:
*	*Xedit	*	*	*	*	*	*
2BB-y	do-	.	.	[2B-y	.	2r	.
*	*	*Xlig	*	*	*	*	*
=106	=106	=106	=106	=106	=106	=106	=106
*lig	*	*	*	*	*	*	*
*	*	*	*	*	*	*	*Xedit
[1.E-i	-na	2r	.	2B-]	.	2g	do-
.	.	2r	.	1G	.	1b-y	.
*	*	*	*	*Xcol	*	*	*
*	*	*	*Xedit	*	*	*	*
.	.	[2G	do-	.	.	.	.
*	*	*	*	*Xlig	*	*	*
=107	=107	=107	=107	=107	=107	=107	=107
1.E-]	.	4G]	.	4B-y	-bis	2g	-na
*	*	*	*	*	*edit	*	*
.	.	4.B-y	.	4.e-i	pa-	.	.
.	.	.	.	.	.	4g	no-
.	.	8AL	.	8dL	.	.	.
.	.	8G	.	8c	.	4.cc	.
.	.	8FJ	.	8B-yJ	.	.	.
.	.	2G	.	2c	.	.	.
.	.	.	.	.	.	8b-yL	.
.	.	.	.	.	.	8a	.
.	.	.	.	.	.	8gJ	.
=108	=108	=108	=108	=108	=108	=108	=108
1.D	.	1.A	-na	2.d	-cem,	2.f	-bis
.	.	.	.	4e	.	4g	.
.	.	.	.	2f	.	2a	.
*Xlig	*	*	*	*	*	*	*
!!LO:LB:g=original
=109	=109	=109	=109	=109	=109	=109	=109
2.G	no-	2.B-y	no-	2r	.	4d	.
.	.	.	.	.	.	2b-y	pa-
.	.	.	.	2r	.	.	.
4F	.	2.c	-bis	.	.	4a	.
2E-i	-bis	.	.	2G	do-	2g	.
=110	=110	=110	=110	=110	=110	=110	=110
*	*edit	*	*	*	*	*	*edit
1D	pa-	1.d	pa-	2.A	-na	1f	-cem,
.	.	.	.	2B-y	no-	.	.
2BB-y	-cem,	.	.	.	.	2b-y	do-
.	.	.	.	8AL	.	.	.
.	.	.	.	8GJ	.	.	.
=111	=111	=111	=111	=111	=111	=111	=111
*	*	*col	*	*	*	*	*
*col	*	*	*	*	*	*	*
1F	do-	1c	.	4F	-bis	4a	-na
*	*	*	*	*	*Xedit	*	*
.	.	.	.	4.A	pa-	4.cc	no-
.	.	.	.	8G	.	8b-y	.
.	.	.	.	4A	.	4a	.
*lig	*	*lig	*	*	*	*	*
2G	-na	2B-y	.	2B-y	-cem,	4g	.
.	.	.	.	.	.	[4b-y	-bis
=112	=112	=112	=112	=112	=112	=112	=112
*	*	*	*	*	*edit	*	*
2E-i	.	2G	.	2e-i	no-	4b-]	.
.	.	.	.	.	.	8aL	.
.	.	.	.	.	.	8gJ	.
*Xlig	*	*	*	*	*	*	*
*lig	*	*	*	*	*	*	*
2F	no-	1A	.	4c	.	4f	.
*	*	*Xcol	*	*	*	*	*
.	.	.	.	2.d	-bis	4.a	pa-
2D	-bis	.	.	.	.	.	.
*Xcol	*	*	*	*	*	*	*
.	.	.	.	.	.	8e	.
.	.	.	.	.	.	4f#i	.
*Xlig	*	*Xlig	*	*	*	*	*
=113	=113	=113	=113	=113	=113	=113	=113
*	*Xedit	*	*	*	*	*	*Xedit
4.E-i	pa-	[1.Gl	-cem.	2B-y	pa-	[1.gl	-cem.
8D	.	.	.	.	.	.	.
4C	.	.	.	4E-X	.	.	.
4BB-y	.	.	.	4D	.	.	.
2C	.	.	.	2E-i	.	.	.
=114	=114	=114	=114	=114	=114	=114	=114
1.GGl	-cem.	1.G]	.	1.Dl	-cem.	1.g]	.
==	==	==	==	==	==	==	==
*-	*-	*-	*-	*-	*-	*-	*-
!!!system-decoration: [*]
!!!RDF**kern: j = editorial accidental, optional, paren up
!!!RDF**kern: i = editorial accidental
!!!RDF**kern: l = terminal breve
!!!PTL: Gaspar van Weerbeke: Collected Works. II. Masses, Part 2
!!!ISBN: 978-1-59551-518-6
!!!PPR: American Institute of Musicology
!!!PC#: Corpus Mensurabilis Musicae 106/II.2
!!!PDT: 2018
!!!PED: Kolb, Paul
!!!YEC: Copyright 2016, Kolb, Paul
!!!YEM: CC-BY-NC 4.0 (https://creativecommons.org/licenses/by-nc/4.0/legalcode)
!!!EED: Zybina, Karina
!!!EEV: 2021/10/03
!!!title: @{OPR} &mdash; @{OTL}
